X:1
T:James Gibb editions
T:The way is long and dreary - Barnby
%%score [ ( 1 2 3 ) ( 4 5 6 ) ]
L:1/8
Q:1/4=90
M:4/4
K:C
V:1 treble nm="Midi_74"
V:2 treble 
V:3 treble 
V:4 bass nm="Midi_74"
V:5 bass 
V:6 bass 
V:1
"^Pilgrim song""^Adelaide Anne Procter\n(1825-64)""^The way is long and dreary""^Joseph Barnby\n(1838-96)" E2 | %1
w: The|
w: The|
w: Our|
 A2 ^G2 B2 A2 | c4 B2 A2 | A2 A2 G2 F2 | E6 E2 | B2 c2 A2 A2 | G4 F2 E2 | ^D2 A2 ^G2 A2 | B6 B2 | %9
w: way is long and|drea- ry, The|path is bleak and|bare, Our|feet are worn and|wea- ry, But|we will not de-|spair; More|
w: snows lie thick a-|round us in|dark and gloo- my|night, The|tem- pest roars a-|bove us, The|stars have hid their|light; But|
w: hearts are faint with|sor- row, Hea-|vy and sad to|bear; We|dread the bit- ter|mor- row, But|we will not des-|pair. Thou|
 d2 c2 B2 A2 | A4 ^G2 G2 | B2 ^G2 E2 ^F2 | E8 ||[K:A] E4 F2 A2 | A2 G2 F2 EE | E2 F G A2 c2 |1,2 %16
w: hea- vy was Thy|bur- den, More|de- so- late Thy|way:||||
w: bla- cker was the|dark- ness 'Round|Cal- vary's cross that|day:|O Lamb of|God, who tak- est The|sin of the world a-|
w: know- est all our|an- guish, And|Thou wilt bid it|cease:||||
 (c4 B2) F2 | A4 G2 F2 | E8 | E8 :|3 (c4 B4) || (A4 G2) F2 | E8 | E8 || F8 | E8 |] %26
w: way, * Have|mer- cy u\-||us.|way, *|Give ~~~~us *||peace.|A-|men.|
w: ||||||||||
w: ||||||||||
V:2
 E2 | A2 ^G2 B2 A2 | c4 B2 A2 | F2 F2 E2 D2 | C6 C2 | D2 E2 C2 C2 | E4 D2 C2 | C2 C2 ^D2 D2 | %8
w: ||||||||
 E6 E2 | F2 E2 F2 ^F2 | E4 E2 E2 | E2 E2 E2 ^D2 | E8 ||[K:A] E4 F2 A2 | A2 G2 F2 EE | %15
w: |||||||
 E2 FG A2 E2 |1,2 F6 F2 | E4 D2 D2 | (D4 C2 B,2) | A,8 :|3 F8 || E4 D4 | (D4 C2 B,2) | A,8 || D8 | %25
w: |||pon * *||||Thy * *|||
 C8 |] %26
w: |
V:3
 x2 | [CE]2 [B,E]2 [DE]2 [CE]2 | E4 [DE]2 [CE]2 | x8 | x8 | x8 | x8 | x8 | x8 | x8 | x8 | x8 | %12
 x8 ||[K:A] C8 | D8 | E8 |1,2 x8 | x8 | x8 | x8 :|3 x8 || x8 | x8 | x8 || x8 | x8 |] %26
V:4
 E,2 | A,2 ^G,2 B,2 A,2 | C4 B,2 A,2 | A,2 A,2 A,2 A,2 | A,6 A,2 | A,2 ^G,2 A,2 A,2 | %6
 _B,4 A,2 A,2 | A,2 A,2 B,2 A,2 | ^G,6 G,2 | ^G,2 A,2 D2 C2 | C4 B,2 B,2 | ^G,2 B,2 G,2 A,2 | %12
 ^G,8 ||[K:A] E,4 F,2 A,2 | A,2 G,2 F,2 E,E, | E,2 F,G, A,2 A,2 |1,2 (^A,4 B,2) D2 | C4 B,2 A,2 | %18
 (G,2 F,2 E,2 D,2) | C,8 :|3 (^A,4 B,4) || (C4 B,2) A,2 | (G,2 F,2 E,2 D,2) | C,8 || A,8 | A,8 |] %26
V:5
 E,2 | A,2 ^G,2 B,2 A,2 | C4 B,2 A,2 | D,2 D,2 D,2 F,2 | A,6 A,2 | E,2 E,2 A,,2 A,,2 | %6
w: ||||||
 ^C,4 D,2 E,2 | F,2 F,2 B,,2 B,,2 | E,6 E,2 | B,,2 C,2 D,2 ^D,2 | E,4 E,2 E,2 | %11
w: |||||
 B,,2 B,,2 B,,2 B,,2 | E,8 ||[K:A] E,4 F,2 A,2 | A,2 G,2 F,2 E,E, | E,2 F,G, A,2 A,2 |1,2 D,6 D,2 | %17
w: |||||way, Have|
 E,4 E,4 | z4 E,2 E,2 | A,,8 :|3 D,8 || E,4 E,4 | z4 E,4 | A,,8 || D,8 | A,,8 |] %26
w: mer- cy|u- pon|us.|way,|Give us|Thy|peace.|||
V:6
 x2 | A,,8 | A,,6 A,,2 | x8 | x8 | x8 | x8 | x8 | x8 | x8 | x8 | x8 | x8 ||[K:A] A,,8 | B,,8 | %15
 C,8 |1,2 x8 | x8 | x8 | x8 :|3 x8 || x8 | x8 | x8 || x8 | x8 |] %26

